src/next/cmd/lc_dbreportrename.svg

<svg enable-background="new 0 0 128 128" height="24" viewBox="0 0 24 24" width="24" xmlns="http://www.w3.org/2000/svg" xmlns:xlink="http://www.w3.org/1999/xlink"><radialGradient id="a" cx="102" cy="112.3047" gradientTransform="matrix(.94807 0 0 .9510679 3.32352 5.274458)" gradientUnits="userSpaceOnUse" r="139.55859"><stop offset="0" stop-color="#ececec"/><stop offset=".2363" stop-color="#fafafa"/><stop offset=".2722" stop-color="#fff"/><stop offset=".5313" stop-color="#fafafa"/><stop offset=".8449" stop-color="#ebecec"/><stop offset="1" stop-color="#e1e2e3"/></radialGradient><radialGradient id="b" cx="100.80984" cy="112.93461" gradientUnits="userSpaceOnUse" r="135.18756"><stop offset="0" stop-color="#f1f1f1"/><stop offset=".24349999" stop-color="#fcfcfc"/><stop offset=".2722" stop-color="#fff"/></radialGradient><filter id="c"><feGaussianBlur stdDeviation="1.0394514"/></filter><filter id="d"><feGaussianBlur stdDeviation=".50063244"/></filter><g transform="matrix(.171875 0 0 .171875 2 0)"><g transform="translate(-5.85259 -.001636)"><g stroke-width="1.006155"><path d="m15.566406 10.927734.01953 56.699219-.0689 62.509767h.04102 61.683594 35.14257l.0494-40.751954v-43.515625-34.941407h-35.142604-61.683594z" filter="url(#c)" opacity=".306849"/><path d="m15.566406 9.9589844.02149 57.4277346-.07086 62.750001h.04102 61.683594 35.14257l.0494-40.751954v-43.515625-35.9101566z" filter="url(#c)" opacity=".306849"/><path d="m15.566406 9.9277344.01953 57.1992186-.0689 63.009767h.04102 61.683594 35.14257l.0494-40.751954v-44.515625-34.9414066h-35.142604-61.683594z" filter="url(#c)" opacity=".553425"/></g><path d="m24.905735 10.673272-.03466 115.981498 58.676001-.0001c.53 0 1.039-.211 1.414-.586l31.532924-37.557514c.375-.375.586-.884.586-1.414l.0812-76.423884z" filter="url(#d)" opacity=".89589" transform="matrix(1.0090419 0 0 1.003276 -7.641977 .929762)"/><path d="m17.488281 11.638672.0078 55.27539-.057166 61.085938h.01563 59.25586 33.818355l-.009-61.085938.0586-55.27539h-33.818594-59.25586z" fill="url(#b)"/><path d="m24.066406 17.511719c-.522387 0-.947265.427133-.947265.951172l.162109 48.36914.201527 54.415849c0 .52404.623389.54131.947265.95117h.322266 52.099609c1.116539 3.12203.230569 6.03112.07422-.0156l27.349613-.008c.52333 0 .94727-.42714.94727-.95118l-.098-32.421706.15625-.152343c.17729-.17785.27734-.421743.27734-.671875l-.21289-21.146485.21289-21.146484c0-.250132-.10005-.495978-.27734-.673828l-.15625-.152344-.26562-26.375c0-.524039-.42394-.951172-.94727-.951172l-27.353515-.0078c-.02409-.0019-.04608-.01367-.07031-.01367h-52.099633z" fill="url(#a)"/><g fill="#4c9ac3" fill-opacity=".508571" fill-rule="evenodd"><path d="m34.944481 75.638572h58.181004v5.8181h-58.181004z" opacity=".267606"/><path d="m34.944481 93.092872h58.181v5.8181h-58.181z" opacity=".267606"/><path d="m34.944481 110.54717h58.181v5.8181h-58.181z" opacity=".267606"/></g><g fill="#2d2d2d" fill-opacity=".72"><rect height="5.8181" rx=".949647" ry="1.081132" width="5.859896" x="23.266485" y="23.275672"/><rect height="5.8181" rx=".949647" ry="1.081132" width="5.859896" x="23.266485" y="40.729972"/><rect height="5.8181" rx=".949647" ry="1.081132" width="5.859896" x="23.266485" y="58.184272"/><rect height="5.8181" rx=".949647" ry="1.081132" width="5.859896" x="23.266485" y="75.638565"/><rect height="5.8181" rx=".949647" ry="1.081132" width="5.859896" x="23.266485" y="93.092872"/><rect height="5.8181" rx=".949647" ry="1.081132" width="5.859896" x="23.266485" y="110.547172"/></g><g fill="#4c9ac3" fill-opacity=".508571" fill-rule="evenodd"><path d="m34.944481 23.275676h58.181v5.8181h-58.181z" opacity=".267606"/><path d="m34.944481 40.729976h58.181v5.8181h-58.181z" opacity=".267606"/><path d="m34.944481 58.184276h58.181v5.8181h-58.181z" opacity=".267606"/></g><g fill="#2d2d2d" fill-opacity=".72"><rect height="5.8181" rx=".949647" ry="1.081132" width="5.859896" x="98.901787" y="23.275673"/><rect height="5.8181" rx=".949647" ry="1.081132" width="5.859896" x="98.901787" y="40.729973"/><rect height="5.8181" rx=".949647" ry="1.081132" width="5.859896" x="98.901787" y="58.184273"/><rect height="5.8181" rx=".949647" ry="1.081132" width="5.859896" x="98.901787" y="75.638565"/><rect height="5.8181" rx=".949647" ry="1.081132" width="5.859896" x="98.901787" y="93.092873"/><rect height="5.8181" rx=".949647" ry="1.081132" width="5.859896" x="98.901787" y="110.54717"/></g></g><path d="m29.090498 58.18295h63.999104v46.54474h-63.999104z" fill="#55acd1" stroke-width="3.779527"/><g fill="#fff" stroke-width="2.183641"><path d="m54.375652 85.882493h-10.339103l-2.163146 6.214461h-4.821248l10.082459-26.691019h4.161306l10.10079 26.691019h-4.83958zm-9.037549-3.739676h7.735996l-3.867998-11.072373z"/><path d="m64.439781 92.096954v-26.691019h9.14754q4.527941 0 6.892736 1.814843 2.364794 1.814843 2.364794 5.407864 0 1.833175-.989914 3.299714-.989914 1.46654-2.896415 2.273137 2.163146.586615 3.336377 2.218141 1.191564 1.613193 1.191564 3.886329 0 3.758008-2.419791 5.7745-2.401458 2.016491-6.892735 2.016491zm4.637931-12.043955v8.340943h5.15122q2.181477 0 3.409704-1.081573 1.228227-1.081573 1.228227-3.006406 0-4.161306-4.252964-4.252964zm0-3.409705h4.546272q2.163146 0 3.373041-.971582 1.228227-.989914 1.228227-2.786425 0-1.979828-1.136568-2.859752-1.118236-.879924-3.501363-.879924h-4.509609z"/></g><path d="m75.636364 40.727273v17.454545h11.636364v40.727273h-11.636364v17.454549h40.727276v-17.454549h-11.63637v-40.727273h11.63637v-17.454545z" fill="#fff" fill-opacity=".870588"/><g transform="matrix(0 3.7795275 -3.7795275 0 .000001 -994.51962)"><path d="m275.44876-29.248074h1.53938v7.696862h-1.53938z"/><path d="m290.8425-29.248074h1.53936v7.696862h-1.53936z"/></g><path d="m93.089602 52.364822h5.818095v52.362908h-5.818095z" stroke-width="3.779527"/></g></svg>

<?xml version="1.0" encoding="UTF-8" standalone="no"?>
<svg
   xmlns:dc="http://purl.org/dc/elements/1.1/"
   xmlns:cc="http://creativecommons.org/ns#"
   xmlns:rdf="http://www.w3.org/1999/02/22-rdf-syntax-ns#"
   xmlns:svg="http://www.w3.org/2000/svg"
   xmlns="http://www.w3.org/2000/svg"
   xmlns:sodipodi="http://sodipodi.sourceforge.net/DTD/sodipodi-0.dtd"
   xmlns:inkscape="http://www.inkscape.org/namespaces/inkscape"
   enable-background="new 0 0 128 128"
   height="24"
   viewBox="0 0 24 24"
   width="24"
   version="1.1"
   id="svg102"
   sodipodi:docname="lc_dbreportrename.svg"
   inkscape:version="0.92.4 (unknown)">
  <metadata
     id="metadata108">
    <rdf:RDF>
      <cc:Work
         rdf:about="">
        <dc:format>image/svg+xml</dc:format>
        <dc:type
           rdf:resource="http://purl.org/dc/dcmitype/StillImage" />
        <dc:title></dc:title>
      </cc:Work>
    </rdf:RDF>
  </metadata>
  <defs
     id="defs106" />
  <sodipodi:namedview
     pagecolor="#ffffff"
     bordercolor="#666666"
     borderopacity="1"
     objecttolerance="10"
     gridtolerance="10"
     guidetolerance="10"
     inkscape:pageopacity="0"
     inkscape:pageshadow="2"
     inkscape:window-width="1366"
     inkscape:window-height="706"
     id="namedview104"
     showgrid="true"
     inkscape:zoom="13.906433"
     inkscape:cx="5.7095202"
     inkscape:cy="10.590726"
     inkscape:window-x="0"
     inkscape:window-y="0"
     inkscape:window-maximized="1"
     inkscape:current-layer="g100">
    <inkscape:grid
       type="xygrid"
       id="grid921" />
  </sodipodi:namedview>
  <radialGradient
     id="a"
     cx="102"
     cy="112.3047"
     gradientTransform="matrix(.94807 0 0 .9510679 3.32352 5.274458)"
     gradientUnits="userSpaceOnUse"
     r="139.55859">
    <stop
       offset="0"
       stop-color="#ececec"
       id="stop2" />
    <stop
       offset=".2363"
       stop-color="#fafafa"
       id="stop4" />
    <stop
       offset=".2722"
       stop-color="#fff"
       id="stop6" />
    <stop
       offset=".5313"
       stop-color="#fafafa"
       id="stop8" />
    <stop
       offset=".8449"
       stop-color="#ebecec"
       id="stop10" />
    <stop
       offset="1"
       stop-color="#e1e2e3"
       id="stop12" />
  </radialGradient>
  <radialGradient
     id="b"
     cx="100.80984"
     cy="112.93461"
     gradientUnits="userSpaceOnUse"
     r="135.18756">
    <stop
       offset="0"
       stop-color="#f1f1f1"
       id="stop15" />
    <stop
       offset=".24349999"
       stop-color="#fcfcfc"
       id="stop17" />
    <stop
       offset=".2722"
       stop-color="#fff"
       id="stop19" />
  </radialGradient>
  <filter
     id="c">
    <feGaussianBlur
       stdDeviation="1.0394514"
       id="feGaussianBlur22" />
  </filter>
  <filter
     id="d">
    <feGaussianBlur
       stdDeviation=".50063244"
       id="feGaussianBlur25" />
  </filter>
  <g
     transform="matrix(.171875 0 0 .171875 2 0)"
     id="g100">
    <g
       transform="translate(-5.85259 -.001636)"
       id="g82">
      <g
         stroke-width="1.006155"
         id="g34">
        <path
           d="m15.566406 10.927734.01953 56.699219-.0689 62.509767h.04102 61.683594 35.14257l.0494-40.751954v-43.515625-34.941407h-35.142604-61.683594z"
           filter="url(#c)"
           opacity=".306849"
           id="path28" />
        <path
           d="m15.566406 9.9589844.02149 57.4277346-.07086 62.750001h.04102 61.683594 35.14257l.0494-40.751954v-43.515625-35.9101566z"
           filter="url(#c)"
           opacity=".306849"
           id="path30" />
        <path
           d="m15.566406 9.9277344.01953 57.1992186-.0689 63.009767h.04102 61.683594 35.14257l.0494-40.751954v-44.515625-34.9414066h-35.142604-61.683594z"
           filter="url(#c)"
           opacity=".553425"
           id="path32" />
      </g>
      <path
         d="m24.905735 10.673272-.03466 115.981498 58.676001-.0001c.53 0 1.039-.211 1.414-.586l31.532924-37.557514c.375-.375.586-.884.586-1.414l.0812-76.423884z"
         filter="url(#d)"
         opacity=".89589"
         transform="matrix(1.0090419 0 0 1.003276 -7.641977 .929762)"
         id="path36" />
      <path
         d="m17.488281 11.638672.0078 55.27539-.057166 61.085938h.01563 59.25586 33.818355l-.009-61.085938.0586-55.27539h-33.818594-59.25586z"
         fill="url(#b)"
         id="path38" />
      <path
         d="m24.066406 17.511719c-.522387 0-.947265.427133-.947265.951172l.162109 48.36914.201527 54.415849c0 .52404.623389.54131.947265.95117h.322266 52.099609c1.116539 3.12203.230569 6.03112.07422-.0156l27.349613-.008c.52333 0 .94727-.42714.94727-.95118l-.098-32.421706.15625-.152343c.17729-.17785.27734-.421743.27734-.671875l-.21289-21.146485.21289-21.146484c0-.250132-.10005-.495978-.27734-.673828l-.15625-.152344-.26562-26.375c0-.524039-.42394-.951172-.94727-.951172l-27.353515-.0078c-.02409-.0019-.04608-.01367-.07031-.01367h-52.099633z"
         fill="url(#a)"
         id="path40" />
      <path
         d="m34.944481 75.638572h58.181004v5.8181h-58.181004z"
         fill="#4c9ac3"
         fill-opacity=".508571"
         fill-rule="evenodd"
         opacity=".267606"
         id="path42" />
      <path
         d="m34.944481 93.092872h58.181v5.8181h-58.181z"
         fill="#4c9ac3"
         fill-opacity=".508571"
         fill-rule="evenodd"
         opacity=".267606"
         id="path44" />
      <path
         d="m34.944481 110.54717h58.181v5.8181h-58.181z"
         fill="#4c9ac3"
         fill-opacity=".508571"
         fill-rule="evenodd"
         opacity=".267606"
         id="path46" />
      <g
         fill="#2d2d2d"
         fill-opacity=".72"
         id="g60">
        <rect
           height="5.8181"
           rx=".949647"
           ry="1.081132"
           width="5.859896"
           x="23.266485"
           y="23.275672"
           id="rect48" />
        <rect
           height="5.8181"
           rx=".949647"
           ry="1.081132"
           width="5.859896"
           x="23.266485"
           y="40.729972"
           id="rect50" />
        <rect
           height="5.8181"
           rx=".949647"
           ry="1.081132"
           width="5.859896"
           x="23.266485"
           y="58.184272"
           id="rect52" />
        <rect
           height="5.8181"
           rx=".949647"
           ry="1.081132"
           width="5.859896"
           x="23.266485"
           y="75.638565"
           id="rect54" />
        <rect
           height="5.8181"
           rx=".949647"
           ry="1.081132"
           width="5.859896"
           x="23.266485"
           y="93.092872"
           id="rect56" />
        <rect
           height="5.8181"
           rx=".949647"
           ry="1.081132"
           width="5.859896"
           x="23.266485"
           y="110.547172"
           id="rect58" />
      </g>
      <path
         d="m34.944481 23.275676h58.181v5.8181h-58.181z"
         fill="#4c9ac3"
         fill-opacity=".508571"
         fill-rule="evenodd"
         opacity=".267606"
         id="path62" />
      <path
         d="m34.944481 40.729976h58.181v5.8181h-58.181z"
         fill="#4c9ac3"
         fill-opacity=".508571"
         fill-rule="evenodd"
         opacity=".267606"
         id="path64" />
      <path
         d="m34.944481 58.184276h58.181v5.8181h-58.181z"
         fill="#4c9ac3"
         fill-opacity=".508571"
         fill-rule="evenodd"
         opacity=".267606"
         id="path66" />
      <g
         fill="#2d2d2d"
         fill-opacity=".72"
         id="g80">
        <rect
           height="5.8181"
           rx=".949647"
           ry="1.081132"
           width="5.859896"
           x="98.901787"
           y="23.275673"
           id="rect68" />
        <rect
           height="5.8181"
           rx=".949647"
           ry="1.081132"
           width="5.859896"
           x="98.901787"
           y="40.729973"
           id="rect70" />
        <rect
           height="5.8181"
           rx=".949647"
           ry="1.081132"
           width="5.859896"
           x="98.901787"
           y="58.184273"
           id="rect72" />
        <rect
           height="5.8181"
           rx=".949647"
           ry="1.081132"
           width="5.859896"
           x="98.901787"
           y="75.638565"
           id="rect74" />
        <rect
           height="5.8181"
           rx=".949647"
           ry="1.081132"
           width="5.859896"
           x="98.901787"
           y="93.092873"
           id="rect76" />
        <rect
           height="5.8181"
           rx=".949647"
           ry="1.081132"
           width="5.859896"
           x="98.901787"
           y="110.54717"
           id="rect78" />
      </g>
    </g>
    <path
       d="m29.090498 58.18295h63.999104v46.54474h-63.999104z"
       fill="#55acd1"
       stroke-width="3.779527"
       id="path84" />
    <g
       fill="#fff"
       stroke-width="2.183641"
       id="g90">
      <path
         d="m54.375652 85.882493h-10.339103l-2.163146 6.214461h-4.821248l10.082459-26.691019h4.161306l10.10079 26.691019h-4.83958zm-9.037549-3.739676h7.735996l-3.867998-11.072373z"
         id="path86" />
      <path
         d="m64.439781 92.096954v-26.691019h9.14754q4.527941 0 6.892736 1.814843 2.364794 1.814843 2.364794 5.407864 0 1.833175-.989914 3.299714-.989914 1.46654-2.896415 2.273137 2.163146.586615 3.336377 2.218141 1.191564 1.613193 1.191564 3.886329 0 3.758008-2.419791 5.7745-2.401458 2.016491-6.892735 2.016491zm4.637931-12.043955v8.340943h5.15122q2.181477 0 3.409704-1.081573 1.228227-1.081573 1.228227-3.006406 0-4.161306-4.252964-4.252964zm0-3.409705h4.546272q2.163146 0 3.373041-.971582 1.228227-.989914 1.228227-2.786425 0-1.979828-1.136568-2.859752-1.118236-.879924-3.501363-.879924h-4.509609z"
         id="path88" />
    </g>
    <path
       inkscape:connector-curvature="0"
       style="opacity:1;vector-effect:none;fill:#ffffff;fill-opacity:0.87058824;stroke:none;stroke-width:5.81818199;stroke-linecap:butt;stroke-linejoin:miter;stroke-miterlimit:4;stroke-dasharray:none;stroke-dashoffset:0;stroke-opacity:1"
       d="M 75.636364,40.727273 V 58.181818 H 87.272728 V 98.909091 H 75.636364 V 116.36364 H 116.36364 V 98.909091 H 104.72727 V 58.181818 h 11.63637 V 40.727273 Z"
       id="rect901" />
    <g
       transform="matrix(0 3.7795275 -3.7795275 0 .000001 -994.51962)"
       id="g96">
      <path
         d="m275.44876-29.248074h1.53938v7.696862h-1.53938z"
         id="path92" />
      <path
         d="m290.8425-29.248074h1.53936v7.696862h-1.53936z"
         id="path94" />
    </g>
    <path
       d="m93.089602 52.364822h5.818095v52.362908h-5.818095z"
       stroke-width="3.779527"
       id="path98" />
  </g>
</svg>
